X:1
T:Title
%%score 1 2 3 4
L:1/8
Q:1/4=96
M:4/4
K:Dmin
V:1 treble nm="MusicXML Part"
V:2 treble-8 nm="MusicXML Part"
V:3 treble-8 nm="MusicXML Part"
V:4 bass nm="MusicXML Part"
V:1
 D6 E2 | F2 D2 ^C4 | D2 A4 G2 | F2 E2 D4 | ^C4 z4 | z8 | z4 z2 E2 | E2 E2 G2 G2 | F4 E4 | %9
w: This is|my com- mand-|ment, this is|my com- mand-|ment,||that|ye love one a-|no- ther,|
 z2 D2 E2 G2- | G2 F2 E3 E | A,2 F2 G2 B2- | B2 A2 G2 F2 | E4 A,2 A,2 | C2 G,2 A,3 A, | A,4 z4 |: %16
w: ev'n as I|_ have lo- ved|you, ev'n as I|_ have lo- ved|you, ev'n as|I have lo- ved|you.|
 z4 z2 A2 | A2 G2 F2 E2 | D2 F2 E2 D2 | D2 C2 F,2 B,2 | A,2 G,2 D4 | z2 B2 B2 A2 | G2 F2 F2 E2 | %23
w: No|man hath great- er|love than this, no|man hath great- er|love than this,|no man hath|great- er love than|
 F8 | z8 | z4 z2 A,2 | C2 D2 F2 E2 | E2 (D3 E ^C2) | D3 F D2 E2 | F2 C2 F2 G2 | B2 A2 A2 G2 | %31
w: this,||to|give his life ev'n|for his _ _|friends, ev'n for his|friends, to give his|life ev'n for his|
 F2 E2 E2 D2 | ^C2 D2 D2 C2 | !fermata!D4 z4 :| %34
w: friends, to give his|life ev'n for his|friends.|
V:2
 A4 A2 c2- | c2 G2 A4 | A4 f2 e2 | d2 c2 (G3 F) | A4 z4 | z8 | z2 A2 A2 A2 | c2 c2 B4 | A4 z4 | %9
w: This is my|_ com- mand-|ment, this is|my com- mand- *|ment,||that ye love|one a- no-|ther,|
 z4 z2 e2 | f2 a4 g2 | f4 e2 d2 | z4 z2 d2 | e2 g4 f2 | e2 (d3 e ^c2) | d4 z4 |: z8 | z2 d2 d2 c2 | %18
w: ev'n|as I have|lo- ved you,|ev'n|as I have|lo- ved _ _|you.||No man hath|
 B2 A2 G2 G2 | F4 x4 | z4 z2 f2 | f2 e2 d2 c2 | c2 (A2 c4) | A8 | z4 z2 A2 | c2 d2 f2 e2 | %26
w: great- er love than|this,|no|man hath great- er|love than _|this,|to|give his life ev'n|
 e2 d2 c4 | z8 | z2 d2 f2 g2 | b2 a2 a2 g2 | f2 f2 e2 d2 | c4 c2 A2- | A(B G2 A4) | %33
w: for his friends,||to give his|life ev'n for his|friends, to give his|life ev'n for|_ his _ _|
 !fermata!A4 z4 :| %34
w: friends.|
V:3
 F6 G2 | A2 D2 E4 | D2 d2 c4 | F2 A2 D4 | E4 z2 E2 | E2 E2 G2 G2 | F4 E4 | z8 | z4 z2 E2 | %9
w: This is|my com- mand-|ment, this is|my com- mand-|ment, that|ye love one a-|no- ther,||ev'n|
 F2 A4 G2 | A2 F2 c2 E2 | F2 A3 (E G2) | d2 (c3 d =B2) | c2 E2 F2 A2- | A2 D2 E3 E | D2 A2 A2 G2 |: %16
w: as I have|lo- ved you, ev'n|as I have _|lo- ved _ _|you, ev'n as I|_ have lo- ved|you. No man hath|
 F2 E2 D2 C2 | F2 (ED) A4 | z8 | z4 z2 d2 | d2 c2 B2 A2 | F2 G2 D2 F2 | E2 F2 G2 G2 | F4 z2 D2 | %24
w: great- er love than|this, than _ this,||no|man hath great- er|love than this, hath|great- er love than|this, to|
 F2 G2 B2 A2 | A2 G2 A3 G | A2 D2 A4 | z2 D2 A2 G2 | B2 A2 F2 c2 | d2 (AB) c4 | z2 F2 G2 G2 | %31
w: give his life ev'n|for his friends, ev'n|for his friends,|to give his|life ev'n for his|friends, his _ friends,|to give his|
 A2 A2 G2 F2 | E2 D2 E4 | !fermata!^F2 A2 A2 G2 :| %34
w: life ev'n for his|friends, for his|friends. No man hath|
V:4
 D,6 C,2 | A,,2 B,,2 A,,4 | D,2 F,4 C,2 | D,2 A,,2 B,,4 | A,,2 A,,2 A,,2 A,,2 | C,2 C,2 B,,4 | %6
w: This is|my com- mand-|ment, this is|my com- mand-|ment, that ye love|one a- no-|
 A,,8 | z8 | z2 D,2 E,2 G,2- | G,(D, F,2) E,2 E,2 | D,2 D,2 C,4 | D,3 D, C,2 B,,2 | F,4 D,4 | %13
w: ther,||ev'n as I|_ have _ lo- ved|you, ev'n as|I have lo- ved|you, ev'n|
 C,4 D,3 D, | C,2 (B,,2 A,,4) | D,4 z2 D,2 |: D,2 C,2 B,,2 A,,2 | B,,2 B,,2 A,,4 | z8 | %19
w: as I have|lo- ved _|you. No|man hath great- er|love than this,||
 z2 A,2 A,2 G,2 | F,2 E,2 D,2 D,2 | A,2 G,2 F,3 F, | C,2 (D,2 C,4) | F,2 A,,2 D,3 D, | %24
w: No man hath|great- er love than|this, hath great- er|love than _|this, to give his|
 D,2 C,2 D,3 (D, | C,2 B,,2) A,,4 | z4 z2 A,,2 | C,2 D,2 F,2 E,2 | D,4 D,2 C,2 | B,,2 F,4 E,2 | %30
w: life ev'n for his|_ _ friends,|to|give his life ev'n|for his friends,|to give his|
 D,2 D,2 C,2 B,,2 | A,,2 A,,2 C,2 (D,2 | A,,2 B,,2 A,,4) | !fermata!D,4 z2 D,2 :| %34
w: life ev'n for his|friends, ev'n for his|_ _ _|friends. No|

